X: 30405
T: Old Stage, The
R: slide
M: 12/8
K: Gmajor
A|B2 E EGE DED DB,D|B2 E EGE c3 B2 A|
B2 E EGE DED DB,D|EFG AFD G3 G2:|
D|G3 BGG dGG BGG|G3 BGG c3 B2 A|
G3 BGG dGG BGG|d2 d ded c3 B2:|

